icon-themes/sifr_svg/cmd/sc_flowchartshapes.flowchart-collate.svg

<svg viewBox="0 0 16 16" xmlns="http://www.w3.org/2000/svg"><g fill="#555753"><path d="m1.4140625 2 6.5859375 4.5859375 6.585938-4.5859375zm6.5859375 6.4140625-6.5859375 6.5859375h13.1718755z" opacity=".35"/><path d="m0 0v1l.70703125.7070312 6.29296875 5.7450294-7 7.5479394v1h16v-1l-7-7.5 7-6.5v-1zm3.828125 2h8.34375l-4.171875 4.171875zm4.171875 7.828125 4.171875 4.171875h-8.34375z"/></g></svg>

<svg xmlns="http://www.w3.org/2000/svg" viewBox="0 0 16 16">
  <path
     style="opacity:0.35;fill:#555753"
     d="M 1.4140625,2 8,6.5859375 14.585938,2 Z M 8,8.4140625 1.4140625,15 H 14.585938 Z"
     />
  <path
     style="fill:#555753"
     d="M 0,0 V 1 L 0.70703125,1.7070312 7,7.4520606 0,15 v 1 H 16 V 15 L 9,7.5 16,1 V 0 Z m 3.828125,2 h 8.34375 L 8,6.171875 Z M 8,9.828125 12.171875,14 h -8.34375 z"
     />
</svg>
